X: 950
T: Günden Güne Efzûn Oluyor...
C: Harputlu Hâfız Hayrî
O: Turkey
F: http://compmusic.upf.edu/node/140
N: suzinak--sarki--senginsemai--gunden_gune--hafiz_mehmet_esref_efendi
N: makam= suzinak
N: form= sarki
N: usul= senginsemai = 6/4
M: 6/4
L: 1/16
K: C _1/4B _7/8e ^f 
Q: 1/4=72
%%MIDI tuningsystem comma53
GFGA Bcde fgag fedc d4 z4  | dcde f2g2 a_bag f2g2 a4 z4  | 
w:  ARANAĞME  |   | 
c'2b2 a2g2 f2e2 d2c2 B6A2  | G3e d2c2 (3B2A2B2 (3A2G2A2 G4 z4  | 
w:   |   | 
GFGA Bcde fgag fedc d4 z4  | dcde f2g2 a_bag f2g2 a4 z4  | 
w:  ARANAĞME  |   | 
c'2b2 a2g2 f2e2 d2c2 B6A2  | G3e d2c2 (3B2A2B2 (3A2G2A2 G4 z4  | 
w:   |   | 
G4 G4 d2ef (3e2d2c2 d4 z4  | B2c4B2 =ed3 (3c2B2A2 G4 z4  | \
w:  Gün den  gü *  *  ne  *  *  ef  |  zûn  *  *  o *  lu *  *  yor   | 
d8 f4 g4 a2_b6  | 
w:  kahr_ ı  a zâ  | 
_bagf edc2 def2 f2ed d4 z4  | GFGA Bcde fgag feed d4 (3B2A2G2  | 
w:  bım    |  SAZ  | 
G4 G4 d2ef (3e2d2c2 d4 z4  | B2c4B2 =ed3 (3c2B2A2 G4 z4  | \
w:  Gün den  gü *  *  ne  *  *  ef  |  zûn  *  *  o *  lu *  *  yor   | 
d8 f4 g4 a2_b6  | 
w:  kahr_ ı  a zâ  | 
_bagf edc2 def2 f2ed d4 z4  | GFGA Bcde fgag feed d4 z4  | 
w:  bım    |  SAZ  | 
d4 gfge d4 feed c2d2 e2g2  | f6g2 a_bag (3f2e2d2 d4 z4  | 
w:  Ey  ömr_ *  *  *  ü  mü *  *  *  ked  |  der  *  yü *  *  *  rü  *  *  az  | 
gfg6 (3=f2e2d2 (3c2B2A2 G2A2 G4  | \
w:  dır  *  *  bu  *  *  şi *  *  tâ  | 
z2c2 c2BA A2B2 B2AG G4 z4  | 
w:  bım    | 
GFGA Bcde fgag feed d4 z4  | d4 gfge d4 feed c2d2 e2g2  | 
w:  SAZ  |  Ey  ömr_ *  *  *  ü  mü *  *  *  ked  | 
f6g2 a_bag (3f2e2d2 d4 z4  | gfg6 (3=f2e2d2 (3c2B2A2 G2A2 G4  | 
w:  der  *  yü *  *  *  rü  *  *  az  |  dır  *  *  bu  *  *  şi *  *  tâ  | 
z2c2 c2BA A2B2 B2AG G4 z4  | GFGA Bcde fga_b agfg a4 z4  | 
w:  bım    |  SAZ  | 
g4 a4 (3_b2a2g2 a2b2 c'2d'c' bag2  | \
w:  Mih net  çe *  *  ke *  cek   | 
z2c'2 c'2ba g4 d'4 (3c'2b2a2 (3g2f2e2  | 
w:  ha *  *  *  li  mi  var   | 
d8 f4 g4 a2_b4a2  | _bagf edc2 def2 f2ed d4 z4  | 
w:  kalb_ i  ha râ  |  bım    | 
GFGA Bcde fga_b agfg a4 z4  | g4 a4 (3_b2a2g2 a2b2 c'2d'c' bag2  | 
w:  SAZ  |  Mih net  çe *  *  ke *  cek   | 
z2c'2 c'2ba g4 d'4 (3c'2b2a2 (3g2f2e2  | \
w:  ha *  *  *  li  mi  var   | 
d8 f4 g4 a2_b4a2  | _bagf edc2 def2 f2ed d4 z4  | 
w:  kalb_ i  ha râ  |  bım    | 
GFGA Bcde fgag feed d4 z4  | d4 gfge d4 feed c2d2 e2g2  | 
w:  SAZ  |  Ey  ömr_ *  *  *  ü  mü *  *  *  ked  | 
f6g2 a_bag (3f2e2d2 d4 z4  | gfg6 (3=f2e2d2 (3c2B2A2 G2A2 G4  | 
w:  der  *  yü *  *  *  rü  *  *  az  |  dır  *  *  bu  *  *  şi *  *  tâ  | 
z2c2 c2BA A2B2 B2AG G4 z4  | |


